X: 1
T: Mister Isaac's Maggot
O: Playford 1695
B: Barnes v.1 p.79
Z: 2015 John Chambers <jc:trillian.mit.edu>
M: 3/2
L: 1/8
K: C
[|\
"C"g4 e4 "G"d4 | "C"cde2 "F"d2c2 "G"d2G2 |\
"C"G2 c4 B2 "F"A4 | "Dm"A2 d4 A2 "G"B2G2 |\
"C"g4 e4 "G"d4 | "C"cde2 "F"d2c2 "G"d2G2 |\
"C"G2 c4 B2 "F"A2fe | "G"d2c2 d2B2 "C"c4 |]
"C"E2G2- G2"(F)"A2 G4 | "C"E2G2- "G"G2AB "C"c2G2 |\
"C"E2G2- G2"(F)"A2 G4 | "C"E2G2- "G"G2AB "C"c2G2 |\
"C"g3f/g/ "F"a3g/f/ "C"g3f/g/ | "F"agfe "Dm"fedc "G"d2G2 |
"C"g3f/g/ "F"a3g/f/ "C"g3f/g/ | "F"agfe "G"defg "C"e2c2 |\
"C"e4 "Dm"f3e/f/ "C"g4 | "C"cde2 "F"d2c2 "G"d2G2 |\
"C"e4 "Dm"f3e/f/ "C"g4 | "C"G2c2- "F"cde2 "G(C)"d2c2 |]

%%sep 1 1 500


